X: 41841
T: Vinterfolk
R: waltz
M: 3/4
K: Amajor
EAc|:e2ec dB|"tr"c2Bc AE|F2FA cA|"tr"B2BE GB|
e2ec dB|"tr"c2Bc AE|F2Ac BG|1 A3E Ac:|2 A3B ce||
|:f2 fe df|{ef}e2de cA|B2 EG BG|A3B ce|
ef fe df|{ef}e2de cA|B2 EG BG|1 A3B ce:|2 A6||

